svgs/regular/tv-music.svg

<svg xmlns="http://www.w3.org/2000/svg" viewBox="0 0 640 512"><!--! Font Awesome Pro 6.1.1 by @fontawesome - https://fontawesome.com License - https://fontawesome.com/license (Commercial License) Copyright 2022 Fonticons, Inc. --><path d="M520 464H120C106.7 464 96 474.7 96 488C96 501.3 106.7 512 120 512h400c13.25 0 24-10.75 24-24C544 474.7 533.3 464 520 464zM576 0H64C28.65 0 0 28.65 0 64v288c0 35.35 28.65 64 64 64h512c35.35 0 64-28.65 64-64V64C640 28.65 611.3 0 576 0zM592 352c0 8.822-7.178 16-16 16H64c-8.822 0-16-7.178-16-16V64c0-8.822 7.178-16 16-16h512c8.822 0 16 7.178 16 16V352zM395.3 96.75l-128 47.25C260.5 146.1 256 152.3 256 159.3v98.75C250.8 256.8 245.4 256 240 256C213.5 256 192 270.4 192 288s21.5 32 48 32S288 305.6 288 288V203.1l96-37.5v60.38C378.8 224.8 373.4 224 368 224C341.5 224 320 238.4 320 256s21.5 32 48 32S416 273.6 416 256V112c0-5.125-2.375-9.875-6.5-12.88S400 95.25 395.3 96.75z"/></svg>

<svg xmlns="http://www.w3.org/2000/svg" viewBox="0 0 640 512"><!--! Font Awesome Pro 6.5.1 by @fontawesome - https://fontawesome.com License - https://fontawesome.com/license (Commercial License) Copyright 2023 Fonticons, Inc. --><path d="M576 48c8.8 0 16 7.2 16 16V352c0 8.8-7.2 16-16 16H64c-8.8 0-16-7.2-16-16V64c0-8.8 7.2-16 16-16H576zM64 0C28.7 0 0 28.7 0 64V352c0 35.3 28.7 64 64 64H576c35.3 0 64-28.7 64-64V64c0-35.3-28.7-64-64-64H64zM96 488c0 13.3 10.7 24 24 24H520c13.3 0 24-10.7 24-24s-10.7-24-24-24H120c-13.3 0-24 10.7-24 24zM416 96c0-5.2-2.6-10.2-6.9-13.2s-9.8-3.7-14.7-1.8l-128 48c-6.2 2.3-10.4 8.3-10.4 15v32 81.8c-5-1.2-10.4-1.8-16-1.8c-26.5 0-48 14.3-48 32s21.5 32 48 32s48-14.3 48-32V187.1l96-36v74.7c-5-1.2-10.4-1.8-16-1.8c-26.5 0-48 14.3-48 32s21.5 32 48 32s48-14.3 48-32V128 96z"/></svg>
